X:3
T:Cowgate gigue
M:6/8
L:1/8
R:jig
K:Bmin
V:1
  dcB fed|g2f       bGG|d2c B2g      |cag f2f:|
|:cde fBB|cB/A/B/c/ AFF|cde fBB      |fge f3  |
  cde fBB|c3/A/B/c/ AFF|fga b3/d/e/f/|Fdc B2B:|
